!!!COM: Vivaldi, Antonio Lucio
!!!CDT: 1678/03/04-1741/08/28
!!!OPR: 12 sonatas for two violins and basso continuo
!!!OTL: Sonata in E minor, op. @{OPS}, no. @{ONM} (@{SCT})
!!!OPS: 1
!!!ONM: 2
!!!OMV: 3. Giga
!!!SCT: RV 67
!!!SCA: Antonio Vivaldi: Thematisch-systematisches Verzeichnis seiner Werke (Ryom-Verzeichnis)
!!!OMD: Allegro
!!!key: e
**kern	**dynam	**fb	**kern	**dynam	**kern	**dynam
*part3	*	*	*part2	*	*part1	*
*staff3	*	*	*staff2	*	*staff1	*
*ICstr&ICklav	*	*	*ICstr	*	*ICstr	*
*Icello&Icemba	*	*	*Ivioln	*	*Ivioln	*
*	*	*	*I#2	*	*I#1	*
*I"Violoncello\nContinuo	*	*	*I"Violin 2	*	*I"Violin 1	*
*I'bc	*	*	*I'v2	*	*I'v1	*
*>[A,A,B,B]	*>[A,A,B,B]	*>[A,A,B,B]	*>[A,A,B,B]	*>[A,A,B,B]	*>[A,A,B,B]	*>[A,A,B,B]
*>norep[A,B]	*>norep[A,B]	*>norep[A,B]	*>norep[A,B]	*>norep[A,B]	*>norep[A,B]	*>norep[A,B]
*>A	*>A	*>A	*>A	*>A	*>A	*>A
*clefF4	*	*	*clefG2	*	*clefG2	*
*k[f#]	*	*	*k[f#]	*	*k[f#]	*
*e:	*	*	*e:	*	*e:	*
*M12/8	*	*	*M12/8	*	*M12/8	*
*MM200	*	*	*MM200	*	*MM200	*
=1	=1	=1	=1	=1	=1	=1
8E\L	.	.	2.r	.	1.r	.
8F#y\	.	.	.	.	.	.
8G\J	.	.	.	.	.	.
8F#y\L	.	6#/	.	.	.	.
8G\	.	.	.	.	.	.
8A\J	.	.	.	.	.	.
8G\L	.	6	8ee\L	.	.	.
8F#y\	.	.	8ff#y\	.	.	.
8E\J	.	.	8gg\J	.	.	.
4D#X\	.	6	8ff#y\L	.	.	.
.	.	.	8gg\	.	.	.
8D#y\	.	.	8aa\J	.	.	.
=2	=2	=2	=2	=2	=2	=2
4E\	.	.	8gg\L	.	8ee\L	.
.	.	.	8ff#y\	.	8ff#y\	.
8EE/	.	.	8ee\J	.	8gg\J	.
4.B\	.	#	4dd#X\	.	8ff#y\L	.
.	.	.	.	.	8gg\	.
.	.	.	8dd#y\	.	8aa\J	.
4.E\	.	.	4.ee\	.	8gg\L	.
.	.	.	.	.	8ff#y\	.
.	.	.	.	.	8ee\J	.
4.BB/	.	#	4.ff#y\	.	4dd#X\	.
.	.	.	.	.	8dd#y\	.
=3	=3	=3	=3	=3	=3	=3
2.E\	.	.	4.b\	.	4ee\	.
.	.	.	.	.	8b\	.
.	.	.	8gg\L	.	8bb\L	.
.	.	.	8ff#y\	.	8aa\	.
.	.	.	8ee\J	.	8gg\J	.
4.AA/	.	8 6	8ff#y\L	.	8aa\L	.
.	.	.	8gg\	.	8bb\	.
.	.	.	8ff#y\J	.	8aa\J	.
4.A\	.	7 5	8ee\L	.	8gg\L	.
.	.	.	8ff#y\	.	8aa\	.
.	.	.	8ee\J	.	8gg\J	.
=4	=4	=4	=4	=4	=4	=4
4.B\	.	#	8dd#X\L	.	4.ff#y\	.
.	.	.	8cc\	.	.	.
.	.	.	8b\J	.	.	.
8A\L	.	7 5	4ee\	.	8gg\L	.
8B\	.	.	.	.	8ff#y\	.
8c\J	.	.	8a/	.	8ee\J	.
4.B\	.	7 #	(4a/	.	8dd#X\L	.
.	.	.	.	.	8b\	.
.	.	.	8g/)	.	8ee\J	.
4.BB/	.	6 4	(4g/	.	4B/	.
.	.	5 #	8f#y/)	.	8dd#y\	.
!!LO:LB:g=original
=5	=5	=5	=5	=5	=5	=5
4.E\	.	.	4e/	.	4.ee\	.
.	.	.	8b\	.	.	.
4.AA/	.	.	[4.cc\	.	8r	.
.	.	.	.	.	8r	.
.	.	.	.	.	8ee\	.
4.D\	.	7	8cc\L]	.	4.ff#y\	.
.	.	.	8dd\	.	.	.
.	.	.	8cc\J	.	.	.
4.GG/	.	.	[4.b\	.	(8gg\L	.
.	.	.	.	.	8aa\	.
.	.	.	.	.	8bb\J)	.
=6	=6	=6	=6	=6	=6	=6
4.C/	.	7	8b\L]	.	4.ee\	.
.	.	.	8cc\	.	.	.
.	.	.	8b\J	.	.	.
4.FF#y/	.	.	4a/	.	(8ff#y\L	.
.	.	.	.	.	8gg\	.
.	.	.	8g/	.	8aa\J)	.
8BB\L	.	#	4.f#y/	.	4.dd#X\	.
8B\	.	.	.	.	.	.
8A\J	.	.	.	.	.	.
8G\L	.	6	4r	.	4r	.
8F#y\	.	.	.	.	.	.
8E\J	.	.	8r	.	8r	.
=7	=7	=7	=7	=7	=7	=7
4.D#X\	.	6	2.r	.	8r	.
.	.	.	.	.	8bb\L	.
.	.	.	.	.	8ff#y\J	.
4r	.	.	.	.	8dd#X\L	.
.	.	.	.	.	8ff#y\	.
8r	.	.	.	.	8dd#y\J	.
4.D#y\	.	6	8r	.	4b\	.
.	.	.	8bb\L	.	.	.
.	.	.	8ff#y\J	.	8bb\	.
4.BB/	.	#	8dd#X\L	.	4bb\	.
.	.	.	8ff#y\	.	.	.
.	.	.	8dd#y\J	.	8aa\	.
=8	=8	=8	=8	=8	=8	=8
4.E\	.	.	4.b\	.	8gg\L	.
.	.	.	.	.	8ee\	.
.	.	.	.	.	8b\J	.
4r	.	.	4r	.	8g#X/L	.
.	.	.	.	.	8b/	.
8r	.	.	8r	.	8g#y/J	.
4.G#X\	.	6	8r	.	4e/	.
.	.	.	8ee\L	.	.	.
.	.	.	8b\J	.	8ee\	.
4.E\	.	#	8g#X/L	.	4ee\	.
.	.	.	8b/	.	.	.
.	.	.	8g#y/J	.	8dd\	.
!!LO:LB:g=original
=9	=9	=9	=9	=9	=9	=9
8A\L	.	.	4.e/	.	4.cc\	.
8c\	.	.	.	.	.	.
8B\J	.	.	.	.	.	.
8A\L	.	.	8r	.	[4.aa\	.
8B\	.	.	8r	.	.	.
8c\J	.	.	8ee\	.	.	.
4.B\	.	7 #	4.dd#X\	.	8aa\L]	.
.	.	.	.	.	8gg\	.
.	.	.	.	.	8ff#y\J	.
4.E\	.	.	[4.ee\	.	8gg\L	.
.	.	.	.	.	8ff#y\	.
.	.	.	.	.	8ee\J	.
=10	=10	=10	=10	=10	=10	=10
4.F#y\	.	7 #	4.ee\]	.	8aa#X\L	.
.	.	.	.	.	8gg#X\	.
.	.	.	.	.	8ff#y\J	.
8G\L	.	5	4ddn\	.	8bb\L	.
8F#y\	.	.	.	.	8aan\	.
8E\J	.	6#/	8cc#X\	.	8gg\J	.
4D\	.	6	8dd\L	.	8ff#y\L	.
.	.	.	8cc#X\	.	8ee\	.
8E\	.	7 5	8b\J	.	8dd\J	.
4F#y\	.	6 4	(4b\	.	(4dd\	.
8FF#y/	.	5#| #	8a#X/)	.	8cc#X\)	.
=11	=11	=11	=11	=11	=11	=11
1.BB	.	.	1.b	.	8b\L	.
.	.	.	.	.	8ff#y\	.
.	.	.	.	.	8dd\J	.
.	.	.	.	.	8b/L	.
.	.	.	.	.	8f#y/	.
.	.	.	.	.	8d/J	.
.	.	.	.	.	2.B/	.
=12:|!|:	=12:|!|:	=12:|!|:	=12:|!|:	=12:|!|:	=12:|!|:	=12:|!|:
*>B	*>B	*>B	*>B	*>B	*>B	*>B
8B\L	.	.	2.r	.	1.r	.
8c#X\	.	.	.	.	.	.
8d\J	.	.	.	.	.	.
8c#X\L	.	6#/	.	.	.	.
8d\	.	.	.	.	.	.
8e\J	.	.	.	.	.	.
8d\L	.	6	8b\L	.	.	.
8c#X\	.	.	8cc#X\	.	.	.
8B\J	.	.	8dd\J	.	.	.
4A#X\	.	6 (#)	8cc#X\L	.	.	.
.	.	.	8dd\	.	.	.
8A#y\	.	.	8ee\J	.	.	.
!!LO:LB:g=original
=13	=13	=13	=13	=13	=13	=13
4B\	.	.	8dd\L	.	8b\L	.
.	.	.	8cc#X\	.	8cc#X\	.
8BB/	.	.	8b\J	.	8dd\J	.
4.F#y\	.	#	4a#X/	.	8cc#y\L	.
.	.	.	.	.	8dd\	.
.	.	.	8a#y/	.	8ee\J	.
4.BB/	.	.	4.b\	.	8dd\L	.
.	.	.	.	.	8cc#y\	.
.	.	.	.	.	8b\J	.
4.FF#y/	.	#	4.cc#X\	.	4a#X/	.
.	.	.	.	.	8a#y/	.
=14	=14	=14	=14	=14	=14	=14
4.BB/	.	.	4.f#y/	.	4.b\	.
4r	.	.	4r	.	4ff#y\	.
8r	.	.	8r	.	8ff#y\	.
4r	.	.	2.b\	.	(4ff#y\	.
8r	.	.	.	.	8ee\)	.
4G\	.	6	.	.	4e/	.
8G\	.	.	.	.	8ee\	.
=15	=15	=15	=15	=15	=15	=15
4G\	.	6 4 2	2.an/	.	(4ee\	.
8F#y\	.	6	.	.	8dd\)	.
4FF#y/	.	.	.	.	8r	.
.	.	.	.	.	8r	.
8F#y\	.	.	.	.	8dd\	.
4F#y\	.	6 4 2	4.g/	.	(4dd\	.
8E\	.	6#/	.	.	8cc#X\)	.
8r	.	.	4.ee\	.	4c#X/	.
8r	.	.	.	.	.	.
8E\	.	.	.	.	8cc#y\	.
=16	=16	=16	=16	=16	=16	=16
4E\	.	6 4 2	4.f#y/	.	(4cc#X\	.
8D\	.	6	.	.	8b\)	.
4DD/	.	.	4.dd\	.	8r	.
.	.	.	.	.	8r	.
8D\	.	.	.	.	8b\	.
8E\L	.	6#/ 5	2.cc#X\	.	4.b\	.
8D\	.	.	.	.	.	.
8E\J	.	.	.	.	.	.
8F#y\L	.	#	.	.	4.a#X/	.
8E\	.	.	.	.	.	.
8F#y\J	.	.	.	.	.	.
=17	=17	=17	=17	=17	=17	=17
4.BB/	.	.	4.b\	.	8b\L	.
.	.	.	.	.	8bb\	.
.	.	.	.	.	8ff#y\J	.
4r	.	.	4r	.	8dd#X\L	.
.	.	.	.	.	8ff#y\	.
8r	.	.	8r	.	8dd#y\J	.
4.D#X\	.	6	8r	.	4b\	.
.	.	.	8bb\L	.	.	.
.	.	.	8ff#y\J	.	8bb\	.
4.BB/	.	#	8dd#X\L	.	4bb\	.
.	.	.	8ff#y\	.	.	.
.	.	.	8dd#y\J	.	8aan\	.
!!LO:PB:g=original
=18	=18	=18	=18	=18	=18	=18
4.E\	.	.	4.b\	.	8gg\L	.
.	.	.	.	.	8ee\	.
.	.	.	.	.	8b\J	.
4r	.	.	4r	.	8g#X/L	.
.	.	.	.	.	8b/	.
8r	.	.	8r	.	8g#y/J	.
4.G#X\	.	6	8r	.	4e/	.
.	.	.	8ee\L	.	.	.
.	.	.	8b\J	.	8ee\	.
4.E\	.	#	8g#X/L	.	4ee\	.
.	.	.	8b/	.	.	.
.	.	.	8g#y/J	.	8dd\	.
=19	=19	=19	=19	=19	=19	=19
4.A\	.	.	4.e/	.	8cc\L	.
.	.	.	.	.	8aa\	.
.	.	.	.	.	8ee\J	.
4r	.	.	4r	.	8cc#X\L	.
.	.	.	.	.	8ee\	.
8r	.	.	8r	.	8cc#y\J	.
4.C#X/	.	6	8r	.	4a/	.
.	.	.	8aa\L	.	.	.
.	.	.	8ee\J	.	8aa\	.
4.AA/	.	#	8cc#X\L	.	4aa\	.
.	.	.	8ee\	.	.	.
.	.	.	8cc#y\J	.	8gg\	.
=20	=20	=20	=20	=20	=20	=20
4.D\	.	.	4.a/	.	8ff#y\L	.
.	.	.	.	.	8dd\	.
.	.	.	.	.	8a\J	.
4r	.	.	4r	.	8f#y/L	.
.	.	.	.	.	8a/	.
8r	.	.	8r	.	8f#y/J	.
4.F#X\	.	6	8r	.	4d/	.
.	.	.	8dd\L	.	.	.
.	.	.	8a\J	.	8dd\	.
4.D\	.	.	8f#y/L	.	4dd\	.
.	.	.	8a/	.	.	.
.	.	.	8f#y/J	.	8cc\	.
=21	=21	=21	=21	=21	=21	=21
4.G\	.	.	4.d/	.	(8b\L	.
.	.	.	.	.	8gg\)	.
.	.	.	.	.	8ff#y\J	.
4r	.	.	4r	.	(8gg\L	.
.	.	.	.	.	8ff#y\)	.
8r	.	.	8r	.	8gg\J	.
4.B\	.	6	4.gg\	.	(8dd\L	.
.	.	.	.	.	8gg\)	.
.	.	.	.	.	8ff#y\J	.
4.BB/	.	.	4.dd\	.	(8gg\L	.
.	.	.	.	.	8ff#y\)	.
.	.	.	.	.	8gg\J	.
!!LO:LB:g=original
=22	=22	=22	=22	=22	=22	=22
4.C/	.	.	4.ee\	.	(8cc\L	.
.	.	.	.	.	8aa\)	.
.	.	.	.	.	8gg\J	.
4r	.	.	4r	.	(8aa\L	.
.	.	.	.	.	8gg\)	.
8r	.	.	8r	.	8aa\J	.
4.c\	.	6	4.aa\	.	(8ee\L	.
.	.	.	.	.	8aa\)	.
.	.	.	.	.	8gg\J	.
4.C/	.	.	4.ee\	.	(8aa\L	.
.	.	.	.	.	8gg\)	.
.	.	.	.	.	8aa\J	.
=23	=23	=23	=23	=23	=23	=23
4.D\	.	.	4.ff#y\	.	(8dd\L	.
.	.	.	.	.	8bb\)	.
.	.	.	.	.	8aa\J	.
4r	.	.	4r	.	(8bb\L	.
.	.	.	.	.	8aa\)	.
8r	.	.	8r	.	8bb\J	.
4.d\	.	6	4.bb\	.	(8ff#y\L	.
.	.	.	.	.	8bb\)	.
.	.	.	.	.	8aa\J	.
4.D\	.	.	4.ff#y\	.	(8bb\L	.
.	.	.	.	.	8aa\)	.
.	.	.	.	.	8bb\J	.
=24	=24	=24	=24	=24	=24	=24
4.E\	.	.	4.gg\	.	8ee\L	.
.	.	.	.	.	8ccc\	.
.	.	.	.	.	8bb\J	.
4r	.	.	4.ee\	.	8aa\L	.
.	.	.	.	.	8bb\	.
8r	.	.	.	.	8gg\J	.
4.A\	.	6	4.cc\	.	8ff#y\L	.
.	.	.	.	.	8aa\	.
.	.	.	.	.	8gg\J	.
4.AA/	.	.	4.a/	.	8ff#y\L	.
.	.	.	.	.	8gg\	.
.	.	.	.	.	8ee\J	.
=25	=25	=25	=25	=25	=25	=25
4.BB/	.	#	4.f#y/	.	4dd#X\	.
.	.	.	.	.	8b\	.
4r	.	.	4r	.	[4.ee\	.
.	.	.	.	.	.	.
8E\	.	.	8r	.	.	.
[4.B\	.	5 4	8r	.	4ee\]	.
.	.	.	8r	.	.	.
.	.	.	8f#y/	.	8ddn\	.
4B\]	.	-	[4.b\	.	8dd\L	.
.	.	.	.	.	8ee\	.
8BB/	.	.	.	.	8dd\J	.
=26	=26	=26	=26	=26	=26	=26
4.F#y\	.	5#| 4	4b\]	.	8cc#X\L	.
.	.	.	.	.	8dd\	.
.	.	3	8a/	.	8cc#y\J	.
4.D#X\	.	5	8a/L	.	[4.ff#y\	.
.	.	.	8b/	.	.	.
.	.	.	8a/J	.	.	.
[4.E\	.	9	8g/L	.	4ff#y\]	.
.	.	.	8a/	.	.	.
.	.	8	8g/J	.	8ee\	.
4E\]	.	6	[4.cc\	.	8ee\L	.
.	.	.	.	.	8ff#y\	.
8F#y\	.	.	.	.	8ee\J	.
!!LO:LB:g=original
=27	=27	=27	=27	=27	=27	=27
2.G\	.	5 4	4cc\]	.	8dd\L	.
.	.	.	.	.	8ee\	.
.	.	.	8b\	.	8dd\J	.
.	.	3	8b\L	.	[4.gg\	.
.	.	.	8cc\	.	.	.
.	.	.	8b\J	.	.	.
2.D\	.	5 4	8a/L	.	4gg\]	.
.	.	.	8b/	.	.	.
.	.	.	8a/J	.	8ff#y\	.
.	.	3	[4.dd\	.	8ff#y\L	.
.	.	.	.	.	8gg\	.
.	.	.	.	.	8ff#y\J	.
=28	=28	=28	=28	=28	=28	=28
2.A\	.	5 4	4dd\]	.	8ee\L	.
.	.	.	.	.	8ff#y\	.
.	.	.	8cc\	.	8ee\J	.
.	.	3	8cc\L	.	[4.aa\	.
.	.	.	8dd\	.	.	.
.	.	.	8cc\J	.	.	.
2.E\	.	5 4	8b\L	.	4aa\]	.
.	.	.	8cc\	.	.	.
.	.	.	8b\J	.	8gg\	.
.	.	3	4ee\	.	8gg\L	.
.	.	.	.	.	8aa\	.
.	.	.	8dd\	.	8gg\J	.
=29	=29	=29	=29	=29	=29	=29
2.AA/	.	8 6	8cc/L	.	8ff#y\L	.
.	.	.	8b/	.	8gg\	.
.	.	.	8a/J	.	8ff#y\J	.
.	.	7 5	8g/L	.	8ee\L	.
.	.	.	8a/	.	8ff#y\	.
.	.	7 #	8g/J	.	8ee\J	.
2.BB/	.	6 4	4f#y/	.	8dd#X\L	.
.	.	.	.	.	8b\	.
.	.	.	8g/	.	8ee\J	.
.	.	5 4	(4g/	.	4ee\	.
.	.	#	8f#y/)	.	8dd#y\	.
=30	=30	=30	=30	=30	=30	=30
4.E\	.	.	4.e/	.	4ee\	.
.	.	.	.	.	8b\	.
8r	.	.	4r	.	[4.ee\	p
8r	.	.	.	.	.	.
8E\	p	.	8r	.	.	.
[4.B\	.	5 4	8r	.	4ee\]	.
.	.	.	8r	.	.	.
.	.	.	8f#y/	p	8ddn\	.
4B\]	.	-	[4.b\	.	8dd\L	.
.	.	.	.	.	8ee\	.
8BB/	.	.	.	.	8dd\J	.
!!LO:LB:g=original
=31	=31	=31	=31	=31	=31	=31
4.F#y\	.	5#| 4	4b\]	.	8cc#X\L	.
.	.	.	.	.	8dd\	.
.	.	X 3	8a/	.	8cc#y\J	.
4.D#X\	.	5	8a/L	.	[4.ff#y\	.
.	.	.	8b/	.	.	.
.	.	.	8a/J	.	.	.
[4.E\	.	9	8g/L	.	4ff#y\]	.
.	.	.	8a/	.	.	.
.	.	8	8g/J	.	8ee\	.
4E\]	.	6	[4.ccn\	.	8ee\L	.
.	.	.	.	.	8ff#y\	.
8F#y\	.	.	.	.	8ee\J	.
=32	=32	=32	=32	=32	=32	=32
2.G\	.	5 4	4cc\]	.	8dd\L	.
.	.	.	.	.	8ee\	.
.	.	.	8b\	.	8dd\J	.
.	.	3	8b\L	.	[4.gg\	.
.	.	.	8cc\	.	.	.
.	.	.	8b\J	.	.	.
2.D\	.	5 4	8a/L	.	4gg\]	.
.	.	.	8b/	.	.	.
.	.	.	8a/J	.	8ff#y\	.
.	.	3	[4.dd\	.	8ff#y\L	.
.	.	.	.	.	8gg\	.
.	.	.	.	.	8ff#y\J	.
=33	=33	=33	=33	=33	=33	=33
2.A\	.	5 4	4dd\]	.	8ee\L	.
.	.	.	.	.	8ff#y\	.
.	.	.	8cc\	.	8ee\J	.
.	.	3	8cc\L	.	[4.aa\	.
.	.	.	8dd\	.	.	.
.	.	.	8cc\J	.	.	.
2.E\	.	5 4	8b\L	.	4aa\]	.
.	.	.	8cc\	.	.	.
.	.	.	8b\J	.	8gg\	.
.	.	3	4ee\	.	8gg\L	.
.	.	.	.	.	8aa\	.
.	.	.	8dd\	.	8gg\J	.
=34	=34	=34	=34	=34	=34	=34
2.AA/	.	8 6	8cc\L	.	8ff#y\L	.
.	.	.	8b\	.	8gg\	.
.	.	.	8a\J	.	8ff#y\J	.
.	.	7 5	8g/L	.	8ee\L	.
.	.	.	8a/	.	8ff#y\	.
.	.	.	8g/J	.	8ee\J	.
2.BB/	.	7 #	4f#y/	.	8dd#X\L	.
.	.	.	.	.	8b\	.
.	.	6 4	8g/	.	8ee\J	.
.	.	5 4	(4g/	.	(4ee\	.
.	.	X #	8f#y/)	.	8dd#y\)	.
=35	=35	=35	=35	=35	=35	=35
1.E\	.	.	1.e	.	8ee\L	.
.	.	.	.	.	8bb\	.
.	.	.	.	.	8gg\J	.
.	.	.	.	.	8ee\L	.
.	.	.	.	.	8b\	.
.	.	.	.	.	8g\J	.
.	.	.	.	.	2.e/	.
=:|!	=:|!	=:|!	=:|!	=:|!	=:|!	=:|!
*-	*-	*-	*-	*-	*-	*-
!!!SMS: RV 67 / Estienne Roger (No. 363), Amsterdam [facs.]
!!!ENC: Fran Bennion   rev. 05/12/21 E Correia
!!!END: 2004/09/25
!!!ONB: Converted from MuseData with musedata2hum on Sat May 11 12:01:53 2024
!!!YEM: (C) 2004, 2019 Center for Computer Assisted Research in the Humanities
!!!system-decoration: [(s1,s2,s3)]
!!!URL-info: https://wiki.ccarh.org/wiki/MuseData:_Antonio_Vivaldi#Op._1:_Suonate_da_camera_a_tr.C3.A8.2C_due_violini_e_violone_o_cembalo Information about Vivaldi Op. 1 on the CCARH wiki
!!!URL-pdf: https://pdf.musedata.org/vivaldi-op01-no02.pdf#page=4 MuseData edition
!!!URL-pdf: https://s9.imslp.org/files/imglnks/usimg/1/10/IMSLP300295-PMLP10351-Vivaldi_-_Suonate_da_Camera_a_Tre,_Opera_Prima_-Violino_Primo-.pdf#page=4 Amsterdam: Estienne Roger, n.d.(ca.1723). Plate 363.
!!!URL-pdf: https://s9.imslp.org/files/imglnks/usimg/d/d5/IMSLP280400-PMLP10351-Vivaldi_Sonatas_Op_1_-_Violino_Secondo.pdf#page=4 Violino secondo part, Amsterdam: Estienne Roger, n.d.(ca.1723). Plate 363.
!!!URL-pdf: https://s9.imslp.org/files/imglnks/usimg/8/89/IMSLP280401-PMLP10351-Vivaldi_Sonatas_Op_1_-_Organo_e_Violoncello.pdf#page=4 Organo e Violoncello parts, Amsterdam: Estienne Roger, n.d.(ca.1723). Plate 363.
!!!URL-youtube: https://www.youtube.com/watch?v=P5HHPe_W6Uo&t=4919s L'Arte dell'Arco
!!!title: @{OTL}, mov. @{OMV}
!!!filter-vcross: vcross
!!!EEV: 2024/05/11
!!!source-file: https://bitbucket.org/musedata/vivaldi/src/master/roger/op1/no02/stage2/03/01
!!!source-file: https://bitbucket.org/musedata/vivaldi/src/master/roger/op1/no02/stage2/03/02
!!!source-file: https://bitbucket.org/musedata/vivaldi/src/master/roger/op1/no02/stage2/03/03
!!!source-file: https://bitbucket.org/musedata/vivaldi/src/master/roger/op1/no02/stage2/03/04
